resources/svg/mood-flat.svg

<svg xmlns="http://www.w3.org/2000/svg" viewBox="0 0 15 15" fill="currentColor"><path fill-rule="evenodd" clip-rule="evenodd" d="M0 7.5C0 3.35786 3.35786 0 7.5 0C11.6421 0 15 3.35786 15 7.5C15 11.6421 11.6421 15 7.5 15C3.35786 15 0 11.6421 0 7.5ZM4 6H5V5H4V6ZM10 6H11V5H10V6ZM11 9V10H4V9H11Z" fill="black"/></svg>

<svg xmlns="http://www.w3.org/2000/svg" viewBox="0 0 15 15" fill="currentColor"><path fill-rule="evenodd" clip-rule="evenodd" d="M0 7.5a7.5 7.5 0 1115 0 7.5 7.5 0 01-15 0zM4 6h1V5H4v1zm6 0h1V5h-1v1zm1 3v1H4V9h7z" fill="currentColor"/></svg>
